X:1
T:Title
%%score 1 2 3
L:1/8
M:3/2
K:C
V:1 treble nm="Part_1"
V:2 treble-8 nm="Part_2"
V:3 treble-8 nm="Part_3"
V:1
 A6 G2 A4 | A2 _B2 c6 A2 | A2 G2 A2 _B2 G3 F | A4 z4 A4 | _B6 B2 G4 | F4 E2 F2 G2 F2 | %6
 A6 F2 E2 D2 | F2 G2 F2 ED C3 B, | D4 z4 D4 | F2 G2 A4 _B2 G2 | G6 F2 F2 E2 | G4 z2 A4 _B2- | %12
 B2 G2 F2 A2 G2 F2 | A4 z4 A2 _B2 | c4 c4 d2 _B2 | A4 z4 A2 _B2 | c6 _B2 A4 | G4 c4 c4 | %18
 _B2 c2 d4 _e2 d2 | c4 _B4 A4 | A2 _B2 c2 A2 G2 F2 | A4 z4 D4- | D2 E2 F4 GF G2 | A4 F2 G4 F2 | %24
 F4 E6 D2 | D2 C2 D2 E2 F2 G2 | F2 ED D4 C2 B,2 | D12 || F4 G4 A4 | A2 _B2 c6 B2 | A4 A4 G4 | %31
 F4 E4 F2 D2 | D6 ^C2 D2 B,2 | D12 || z4 z4 F4 | A4 G6 F2 | A4 A4 A4 | A4 A2 A2 A4 | z4 A4 A2 _B2 | %39
 c6 _B2 A4 | A4 G6 F2 | A4 z4 F4 | A6 G2 A2 A2 | A4 A4 A2 _B2 | c4 _B4 A4 | G4 F4 F4 | %46
 E4 F2 ED ^C3 B, | D12 |] %48
V:2
 e6 d2 e4 | e2 f2 g6 e2 | e2 d2 e2 f2 d3 c | e4 z4 e4 | f6 f2 d4 | c4 B2 c2 d2 c2 | e6 c2 B2 A2 | %7
 c2 d2 c2 BA G3 F | A4 z4 A4 | c2 d2 e4 f2 d2 | d6 c2 c2 B2 | d4 z2 e4 f2- | f2 d2 c2 e2 d2 c2 | %13
 e4 z4 e2 f2 | g4 g4 a2 f2 | e4 z4 e2 f2 | g6 f2 e4 | d4 g4 g4 | f2 g2 a4 _b2 a2 | g4 f4 e4 | %20
 e2 f2 g2 e2 d2 c2 | e4 z4 A4- | A2 B2 c4 dc d2 | e4 c2 d4 c2 | c4 B6 A2 | A2 G2 A2 B2 c2 d2 | %26
 c2 BA A4 G2 F2 | A12 || c4 d4 e4 | e2 f2 g6 f2 | e4 e4 d4 | c4 B4 c2 A2 | A6 ^G2 A2 F2 | A12 || %34
 z4 z4 c4 | e4 d6 c2 | e4 e4 e4 | e4 e2 e2 e4 | z4 e4 e2 f2 | g6 f2 e4 | e4 d6 c2 | e4 z4 c4 | %42
 e6 d2 e2 e2 | e4 e4 e2 f2 | g4 f4 e4 | d4 c4 c4 | B4 c2 BA ^G3 F | A12 |] %48
V:3
 A2 c4 _B2 A4 | c2 d2 e4 c4 | A2 _B2 c2 d2 B4 | A8 c4 | d8 _B4 | A2 F2 G2 A2 _B4 | A8 G4 | %7
 F4 A2 G2 E4 | D8 D4 | A2 B2 c4 d4 | B4 G2 B2 A4 | G4 c6 d2 | _B4 A2 c2 B4 | A8 c2 d2 | %14
 e2 c2 e4 f2 d2 | c8 d4 | c2 e4 d2 c4 | G4 e8 | d2 e2 f4 z2 f2 | e2 c2 d4 A2 c2- | %20
 c2 d2 A2 c2 _B4 | A8 F4 | G4 F4 _B4 | A6 G4 A2 | F4 G8 | F6 G2 A2 _B2 | A2 G2 F2 D2 E4 | D12 || %28
 F4 _B4 A4 | c2 d2 e4 d4 | c2 A4 c2 _B4 | A4 G4 F4 | D4 E8 | D12 || z4 z4 A4 | c4 B8 | A4 c4 c4 | %37
 c4 c2 c2 A4 | z4 c4 c2 d2 | e4 d4 c4 | A4 B8 | A4 z4 A4 | c6 B2 c2 c2 | A4 c4 c2 d2 | %44
 e2 c2 d4 c4 | _B4 F4 A2 F2 | G4 D2 F2 E4 | D12 |] %48

